X:70
T:Sean sa Cheo
T:John in the Fog
S:unknown photocopy probably from John Wilson
I:speed 300
M:C
K:D
|: (3Bcd | e2 dg eG (3Bcd | ~e3B d2 BA | Beed ~e3 d | (3Bcd ge dG :|
|: (3Bcd | cA ~A2 EA ~A2 | cA ~A2 dG (3Bcd | cA ~A2 EG ~G2 |[1 (3Bcd ge dG:|[2(3Bcd ge defg |
a2 c'a bac'a | abc'a e3f | g2 bg agbg | gb (3bag efge | 
a2 c'a bac'a | abc'a e2f | ~g3 b agef | ~g3 e dG ||
